icons/Camera.svg

<svg width="15" height="15" viewBox="0 0 15 15" fill="none" xmlns="http://www.w3.org/2000/svg">
<path d="M5.06836 1.63476C4.49414 1.78125 4.04297 2.30273 4.04297 2.82422C4.04297 2.91211 3.90234 2.92383 2.6543 2.94141C1.31836 2.95898 1.24805 2.96484 0.984375 3.09961C0.650391 3.26953 0.345703 3.57422 0.164062 3.92578L0.0292969 4.18945V8.17383V12.1582L0.164062 12.4219C0.357422 12.791 0.667969 13.0957 1.01953 13.2539L1.31836 13.3887H7.5H13.6816L13.9863 13.248C14.3789 13.0723 14.7188 12.709 14.877 12.2812C15 11.9531 15 11.8828 15 8.17969C15 4.99219 14.9883 4.37109 14.9121 4.11914C14.8008 3.74414 14.4141 3.30469 14.0273 3.10547C13.752 2.96484 13.6992 2.95898 12.3516 2.94141L10.9688 2.91797L10.9277 2.70703C10.8457 2.27344 10.6113 1.94531 10.2246 1.74023C9.99609 1.61719 9.92578 1.61133 7.61719 1.59961C6.31055 1.59375 5.16797 1.61133 5.06836 1.63476ZM9.99609 2.47851C10.1367 2.60156 10.1602 2.67187 10.1895 3.07031C10.2188 3.42187 10.2539 3.54492 10.3418 3.60937C10.4297 3.67383 10.7637 3.69141 11.9766 3.69141C13.377 3.69141 13.5176 3.70312 13.7402 3.80859C13.8926 3.88476 14.0273 4.00781 14.1094 4.1543L14.2383 4.38281L14.2266 8.22656C14.209 11.9941 14.209 12.0645 14.0859 12.2227C14.0215 12.3105 13.8926 12.4395 13.8047 12.5039C13.6465 12.627 13.6113 12.627 7.5 12.627C1.38867 12.627 1.35352 12.627 1.19531 12.5039C1.10742 12.4395 0.978516 12.3105 0.914062 12.2227C0.791016 12.0645 0.791016 12.0117 0.791016 8.17383C0.791016 4.33594 0.791016 4.2832 0.914062 4.125C1.21289 3.7207 1.18945 3.72656 3 3.69141C4.86328 3.65625 4.80469 3.67383 4.80469 3.1582C4.80469 2.8125 4.88672 2.57812 5.05664 2.44922C5.17383 2.35547 5.39648 2.34375 7.51172 2.34375H9.83789L9.99609 2.47851Z" fill="black"/>
<path d="M12.3809 4.6992C12.123 4.76366 11.8945 5.05662 11.8945 5.30858C11.8945 5.85936 12.416 6.19334 12.8906 5.94725C13.1367 5.81834 13.2422 5.6367 13.2422 5.32616C13.2422 4.85741 12.8496 4.57616 12.3809 4.6992Z" fill="black"/>
<path d="M6.62109 4.77537C5.29687 5.15037 4.35351 6.15232 4.06641 7.50584C3.71484 9.15818 4.76953 10.9804 6.38086 11.4902C6.91992 11.6601 7.76367 11.7011 8.28516 11.5781C9.62695 11.2617 10.6406 10.2187 10.9277 8.86521C11.0918 8.08592 10.9922 7.36521 10.6113 6.58592C10.2246 5.80662 9.48633 5.15623 8.6543 4.86326C8.17383 4.68748 7.0957 4.64646 6.62109 4.77537ZM8.37891 5.6074C9.66797 6.03513 10.4707 7.44724 10.1719 8.74802C9.74414 10.5937 7.72266 11.4668 6.09375 10.5117C4.04883 9.31638 4.5 6.17576 6.79687 5.54881C7.25391 5.42576 7.89844 5.4492 8.37891 5.6074Z" fill="black"/>
</svg>

<svg xmlns="http://www.w3.org/2000/svg" width="15" height="15" fill="none">
  <path fill="#000" d="M5.068 1.635c-.574.146-1.025.668-1.025 1.19 0 .087-.14.099-1.389.116-1.336.018-1.406.024-1.67.159-.334.17-.638.474-.82.826l-.135.263V12.158l.135.264c.193.369.504.674.856.832l.298.135h12.364l.304-.141c.393-.176.733-.539.891-.967.123-.328.123-.398.123-4.101 0-3.188-.012-3.809-.088-4.06-.111-.376-.498-.815-.885-1.015-.275-.14-.328-.146-1.675-.164l-1.383-.023-.041-.211a1.322 1.322 0 0 0-.703-.967c-.229-.123-.3-.129-2.608-.14-1.306-.006-2.449.011-2.549.035Zm4.928.844c.14.123.164.193.194.591.029.352.064.475.152.54.088.064.422.081 1.635.081 1.4 0 1.54.012 1.763.118.153.076.287.199.37.345l.128.229-.011 3.844c-.018 3.767-.018 3.838-.141 3.996a1.596 1.596 0 0 1-.281.28c-.159.124-.194.124-6.305.124s-6.146 0-6.305-.123a1.598 1.598 0 0 1-.28-.281C.79 12.064.79 12.012.79 8.173c0-3.837 0-3.89.123-4.048.299-.404.275-.398 2.086-.434 1.863-.035 1.805-.017 1.805-.533 0-.345.082-.58.252-.709.117-.094.34-.105 2.455-.105h2.326l.158.135Z"/>
  <path fill="#000" d="M12.38 4.7c-.257.064-.486.357-.486.609 0 .55.522.884.997.638.246-.129.351-.31.351-.62 0-.47-.392-.75-.861-.628ZM6.621 4.775c-1.324.375-2.267 1.377-2.555 2.73-.351 1.653.704 3.475 2.315 3.985.539.17 1.383.211 1.904.088a3.51 3.51 0 0 0 2.643-2.713c.164-.78.064-1.5-.317-2.28a3.56 3.56 0 0 0-1.957-1.722c-.48-.176-1.558-.217-2.033-.088Zm1.758.832c1.289.428 2.092 1.84 1.793 3.141-.428 1.846-2.45 2.719-4.078 1.764-2.045-1.196-1.594-4.336.703-4.963.457-.123 1.101-.1 1.582.058Z"/>
</svg>
